X: 21
T: Lady Loudon's Strathspey
%R: strathspey
B: Urbani & Liston "A Selection of Scotch, English Irish, and Foreign Airs", Edinburgh 1800, p.9
F: http://www.vwml.org/browse/browse-collections-dance-tune-books/browse-urbani1800
Z: 2014 John Chambers <jc:trillian.mit.edu>
N: The 2nd strain has initial repeat but no final repeat; not fixed.
M: C
L: 1/8
K: D
f/g/ |\
a<da>f a<da>f | a<da>f (be) ef/g/ |\
a<dTa>f a<fa>f | g<bTa>f fdd :|\
|: f |\
A>dF>d A>dfd | A>dFd eEEd |
A>dF>d A>dfd | g/a/b Tag fdTd> f |\
A>dF>d A>df>d | A>dF>d eEEg/a/ |\
b>ga>f g>ef>d | g>bag | fdd |]

%%sep 1 1 500
%%sep 1 1 500
